X:3
T: A Bhruinnillin Bhéasach, S. 36
N: I0502
O: Irland
S: O BOYLE, Sean: 25 Irish Folksongs, Dublin 1976]
R: ???]
M: 3/4
L: 1/16
K: F
F2G2 | A4f4e3c | d4e4A3=B | c4d4A3F | G4F6F2 | F6z2
F3G | A4A4F2D2 | F4F4A2c2 | d4d4f3e | d2edc6c2 | c6z2
F3G | A4A4F3D | F4F4A2c2 | d4d4f3e | d2edc4c4 | c6z2
F3G | A4f4e3c | d4e4A3=B | c4d4A3F | G4F6F2 | F6z2

